X:1
T:Title
%%score { ( 1 3 ) | 2 }
L:1/8
M:4/4
K:A
V:1 treble nm="Grand Piano"
V:3 treble 
V:2 bass 
V:1
 z4 z2 z[Q:1/4=108] [CE] | [CA]2 [CA]2 [Ec]3 [CE] | [CA]2 [DA]2 [CA]3 [Ec] | B2 B2 e3 B | %4
 c2 d2 c3 [CE] | [CA]2 [CA]2 [Ec]3 [CE] | [CA]2 [DA]2 [CA]3 [Ec] | B2 B2 B3 d | c2 B2 [CA]4 | %9
 A4 AAAA | c6 z2 | B4 BBBB | d6 z2 | c4 cccc |[M:17/16] e/-e/-e/-e/-e/-e/-e/-e/-e/-e-<e z/ z/ z | %15
[M:4/4] cccc [EGB]2 [DEB]2 |[M:7/8] [CEA]-[CEA]-[CEA]- [CEA]3 z |] %17
V:2
 z4 z2 z [A,,A,] | [A,,E,]2 [A,,E,]2 [A,,A,]3 [A,,A,] | [A,,E,]2 [A,,F,]2 [A,,E,]3 [A,,A,] | %3
 [E,G,E]2 [E,G,E]2 [E,G,E]3 [E,G,E] | [A,E]2 [A,F]2[K:bass] [A,E]3 [A,,A,] | %5
 [A,,E,]2 [A,,E,]2 [A,,A,]3 [A,,A,] | [A,,E,]2 [A,,F,]2 [A,,E,]3 [A,,A,] | %7
 [E,G,E]2 [E,G,E]2 [E,G,E]3 [E,B,E] | [E,A,E]2 [E,G,D]2 [A,,A,]4 | %9
 [A,CE]4 [A,CE][A,CE][A,CE][A,CE] | [A,EA]3[K:bass] [A,,A,] [A,,A,][A,,A,] z2 | %11
 [E,G,E]4 [E,G,E][E,G,E][E,G,E][E,G,E] | [E,G,E]3 [E,B,] [E,B,][E,B,] z2 | %13
 [A,EA]4 [A,E][A,E][A,E][A,E] | %14
[M:17/16] [A,CA]/-[A,CA]/-[A,CA]-<[A,CA][K:bass][C,A,][C,A,][C,A,]>[D,A,]-[D,A,]3/2 | %15
[M:4/4] [E,A,E][E,A,E][E,A,E][E,CE] E,2 E,2 |[M:7/8] A,,-A,,-A,,- A,,3 z |] %17
V:3
 x8 | x8 | x8 | x8 | x8 | x8 | x8 | x8 | x8 | x8 | z2 z E EE z2 | x8 | z2 z G GG z2 | x8 | %14
[M:17/16] z/ z/ z/ z/ z =GGG>[Fd]-[Fd]3/2 |[M:4/4] x8 |[M:7/8] x7 |] %17

